icons/mark-github-16.svg

<svg xmlns="http://www.w3.org/2000/svg" width="16" height="16" viewBox="0 0 16 16"><path d="M6.76563 11.695C4.70313 11.4369 3.25 9.90443 3.25 7.92032C3.25 7.11377 3.53125 6.24269 4 5.66198C3.79688 5.12966 3.82813 4.00049 4.0625 3.53269C4.6875 3.45203 5.53125 3.79078 6.03125 4.25858C6.625 4.06501 7.25 3.96822 8.01563 3.96822C8.78125 3.96822 9.40625 4.06501 9.96875 4.24245C10.4531 3.79078 11.3125 3.45203 11.9375 3.53269C12.1562 3.96822 12.1875 5.09739 11.9844 5.64585C12.4844 6.25882 12.75 7.08151 12.75 7.92032C12.75 9.90443 11.2969 11.4046 9.20313 11.6788C9.73438 12.0337 10.0938 12.808 10.0938 13.6952V15.3728C10.0938 15.8568 10.4844 16.131 10.9531 15.9374C13.7813 14.8244 16 11.9047 16 8.29133C16 3.72626 12.4063 0 7.98438 0C3.5625 0 0 3.72626 0 8.29133C0 11.8724 2.20313 14.8405 5.17188 15.9535C5.59375 16.1149 6 15.8245 6 15.389V14.0985C5.78125 14.1953 5.5 14.2598 5.25 14.2598C4.21875 14.2598 3.60938 13.6791 3.17188 12.5983C3 12.1628 2.8125 11.9047 2.45313 11.8563C2.26563 11.8401 2.20313 11.7595 2.20313 11.6627C2.20313 11.4691 2.51563 11.324 2.82813 11.324C3.28125 11.324 3.67188 11.6143 4.07813 12.2112C4.39063 12.679 4.71875 12.8887 5.10938 12.8887C5.5 12.8887 5.75 12.7435 6.10937 12.3725C6.375 12.0982 6.57813 11.8563 6.76563 11.695Z"/></svg>

<svg xmlns="http://www.w3.org/2000/svg" width="16" height="16" viewBox="0 0 16 16"><path d="M6.766 11.695C4.703 11.437 3.25 9.904 3.25 7.92c0-.806.281-1.677.75-2.258-.203-.532-.172-1.662.062-2.129.626-.081 1.469.258 1.969.726.594-.194 1.219-.291 1.985-.291.765 0 1.39.097 1.953.274.484-.451 1.343-.79 1.969-.709.218.435.25 1.564.046 2.113.5.613.766 1.436.766 2.274 0 1.984-1.453 3.485-3.547 3.759.531.355.891 1.129.891 2.016v1.678c0 .484.39.758.859.564C13.781 14.824 16 11.905 16 8.291 16 3.726 12.406 0 7.984 0 3.562 0 0 3.726 0 8.291c0 3.581 2.203 6.55 5.172 7.663A.595.595 0 0 0 6 15.389v-1.291c-.219.097-.5.162-.75.162-1.031 0-1.641-.581-2.078-1.662-.172-.435-.36-.693-.719-.742-.187-.016-.25-.097-.25-.193 0-.194.313-.339.625-.339.453 0 .844.29 1.25.887.313.468.641.678 1.031.678.391 0 .641-.146 1-.516.266-.275.469-.517.657-.678Z"/></svg>
